X:31
T:Cleveland Park
R:jig
M:6/8
K:Am
|:"Am"EABcBA|"F"FABcBA|"F#m"^FABcBA|"G"BdBGBd|"Am"EABcBA|
"F"FABcBA|"G"BdBGBd|1 "Am"dcBAG_B:|2 "Am"dcBA2E
|:"Am"Aceaec|"Am"defecA| \
"F"FAcEAc|"C"cBA"E"^GAB|"Am"Aceaec|"Am"defecA|"F"FAcEAc|
"G"BA^GA2E:|"Am"EABcBA|"F"FABcBA|"G"BfBGBd|"Am"dcBA3|\
